symbols/web/rv_hookup/materialsymbolsrounded/rv_hookup_fill1_20px.svg

<svg xmlns="http://www.w3.org/2000/svg" height="20" width="20"><path d="M15.625 17.292q-.271-.25-.271-.604 0-.355.271-.626l.208-.208H9.896q-.292.729-.927 1.177-.636.448-1.427.448-.792 0-1.427-.448-.636-.448-.927-1.177H4.167q-1.042 0-1.771-.729-.729-.729-.729-1.771v-5h5V5.917H2.521q-.354 0-.604-.25t-.25-.625q0-.354.26-.615.261-.26.615-.26h9.979q.729 0 1.239.51.511.511.511 1.24v8.187h1.562l-.229-.229q-.25-.25-.25-.604t.271-.625q.25-.25.604-.25t.625.25l1.688 1.708q.146.146.208.302t.062.323q0 .167-.062.323t-.208.302l-1.709 1.708q-.25.25-.604.25t-.604-.27ZM8.417 8.354h4.104V5.917H8.417Zm-.855 7.375q.313 0 .532-.219.218-.218.218-.531 0-.312-.218-.531-.219-.219-.532-.219-.312 0-.531.219-.219.219-.219.531 0 .313.219.531.219.219.531.219Z"/></svg>

<svg xmlns="http://www.w3.org/2000/svg" height="20" width="20"><path d="M15.625 17.292Q15.354 17.042 15.354 16.688Q15.354 16.333 15.625 16.062L15.833 15.854H9.896Q9.604 16.583 8.969 17.031Q8.333 17.479 7.542 17.479Q6.75 17.479 6.115 17.031Q5.479 16.583 5.188 15.854H4.167Q3.125 15.854 2.396 15.125Q1.667 14.396 1.667 13.354V8.354H6.667V5.917H2.521Q2.167 5.917 1.917 5.667Q1.667 5.417 1.667 5.042Q1.667 4.688 1.927 4.427Q2.188 4.167 2.542 4.167H12.521Q13.25 4.167 13.76 4.677Q14.271 5.188 14.271 5.917V14.104H15.833L15.604 13.875Q15.354 13.625 15.354 13.271Q15.354 12.917 15.625 12.646Q15.875 12.396 16.229 12.396Q16.583 12.396 16.854 12.646L18.542 14.354Q18.688 14.5 18.75 14.656Q18.812 14.812 18.812 14.979Q18.812 15.146 18.75 15.302Q18.688 15.458 18.542 15.604L16.833 17.312Q16.583 17.562 16.229 17.562Q15.875 17.562 15.625 17.292ZM8.417 8.354H12.521V5.917Q12.521 5.917 12.521 5.917Q12.521 5.917 12.521 5.917H8.417ZM7.562 15.729Q7.875 15.729 8.094 15.51Q8.312 15.292 8.312 14.979Q8.312 14.667 8.094 14.448Q7.875 14.229 7.562 14.229Q7.25 14.229 7.031 14.448Q6.812 14.667 6.812 14.979Q6.812 15.292 7.031 15.51Q7.25 15.729 7.562 15.729Z"/></svg>
